X: 11
T:The High Road to Linton
M:4/4
K:A
|:cefe a2 ae|fece faae|cefe a2 ae|ffed c2 A2:|
|:ceea fddd|eccc dBBB|ceea faec|ddBd c2 A2:|

